assets/img/misc.svg

<svg width="64" height="72" viewBox="0 0 64 72" fill="none" xmlns="http://www.w3.org/2000/svg">
<path fill-rule="evenodd" clip-rule="evenodd" d="M21.4135 67.1901C15.3024 65.4291 8.90435 64.5408 2.69779 63.727C1.36099 63.5564 0.119867 64.5084 0.0243819 65.8497C-0.166589 67.192 0.788826 68.4196 2.03014 68.5902C8.04573 69.3736 14.2517 70.2119 20.0763 71.9071C21.3177 72.2748 22.655 71.5179 23.037 70.2158C23.4189 68.9147 22.6548 67.5587 21.4135 67.1901Z" fill="#FEE400"/>
<path fill-rule="evenodd" clip-rule="evenodd" d="M39.9369 42.2241C30.1019 31.9183 19.0256 22.9391 9.38155 12.3568C8.52218 11.3684 6.99441 11.3155 6.03956 12.2381C5.0847 13.1617 4.98959 14.7148 5.94444 15.7031C15.5885 26.3159 26.6648 35.3245 36.4998 45.6607C37.4547 46.6255 38.9821 46.6392 39.9369 45.6901C40.7963 44.742 40.8918 43.1889 39.9369 42.2241Z" fill="#FEE400"/>
<path fill-rule="evenodd" clip-rule="evenodd" d="M58.3669 2.58431C58.6534 8.48287 58.9393 14.3814 59.2257 20.281C59.2257 21.6321 60.3721 22.6753 61.7089 22.6096C63.0457 22.5429 64 21.3928 64 20.0408C63.7135 14.1324 63.4276 8.22501 63.1412 2.31762C63.0457 0.966515 61.8997 -0.0698525 60.5629 0.0036835C59.3216 0.0772195 58.2714 1.23419 58.3669 2.58431Z" fill="#FEE400"/>
</svg>

<svg width="64" height="72" fill="none" xmlns="http://www.w3.org/2000/svg"><path fill-rule="evenodd" clip-rule="evenodd" d="M21.413 67.19c-6.11-1.76-12.509-2.65-18.715-3.463-1.337-.17-2.578.781-2.674 2.123-.19 1.342.765 2.57 2.006 2.74 6.016.784 12.222 1.622 18.046 3.317 1.242.368 2.579-.39 2.961-1.691.382-1.301-.382-2.657-1.623-3.026ZM39.937 42.224C30.102 31.918 19.026 22.94 9.382 12.357c-.86-.989-2.388-1.041-3.342-.119-.955.924-1.05 2.477-.096 3.465C15.59 26.316 26.664 35.325 36.5 45.661a2.417 2.417 0 0 0 3.437.03c.86-.949.955-2.502 0-3.467ZM58.367 2.584l.859 17.697c0 1.351 1.146 2.394 2.483 2.329C63.046 22.543 64 21.393 64 20.04l-.859-17.722C63.046.967 61.9-.07 60.563.004c-1.241.073-2.292 1.23-2.196 2.58Z" fill="#FEE400"/></svg>
